assets/i18n/b-uk-dk.svg

<?xml version="1.0" encoding="UTF-8"?>
<svg width="280px" height="24px" viewBox="0 0 280 24" version="1.1" xmlns="http://www.w3.org/2000/svg" xmlns:xlink="http://www.w3.org/1999/xlink">
    <!-- Generator: Sketch 51.3 (57544) - http://www.bohemiancoding.com/sketch -->
    <title>SwG-UK Copy-Black</title>
    <desc>Created with Sketch.</desc>
    <defs></defs>
    <g id="SwG-UK-Copy" stroke="none" stroke-width="1" fill="none" fill-rule="evenodd">
        <path d="M1.656,18 L1.656,1.532 L13.57,1.532 L13.57,18 L11.454,18 L11.454,3.556 L3.772,3.556 L3.772,18 L1.656,18 Z M18.95775,3.901 C18.6664152,4.19233479 18.3137521,4.338 17.89975,4.338 C17.4857479,4.338 17.1330848,4.19233479 16.84175,3.901 C16.5504152,3.60966521 16.40475,3.25700207 16.40475,2.843 C16.40475,2.42899793 16.5504152,2.07633479 16.84175,1.785 C17.1330848,1.49366521 17.4857479,1.348 17.89975,1.348 C18.3137521,1.348 18.6664152,1.49366521 18.95775,1.785 C19.2490848,2.07633479 19.39475,2.42899793 19.39475,2.843 C19.39475,3.25700207 19.2490848,3.60966521 18.95775,3.901 Z M18.95775,18 L16.84175,18 L16.84175,6.73 L18.95775,6.73 L18.95775,18 Z M23.2415,21.496 L21.2175,21.496 L21.2175,16.068 L22.5745,16.068 C22.911835,15.7766652 23.1916656,15.2131708 23.414,14.3775 C23.6363344,13.5418292 23.7475,12.5643389 23.7475,11.445 L23.7475,6.73 L33.7295,6.73 L33.7295,16.068 L35.5695,16.068 L35.5695,21.496 L33.5455,21.496 L33.5455,18 L23.2415,18 L23.2415,21.496 Z M25.8635,8.662 L25.8635,11.606 C25.8635,13.400009 25.5568364,14.8873274 24.9435,16.068 L31.6135,16.068 L31.6135,8.662 L25.8635,8.662 Z M37.64525,18 L37.64525,6.73 L47.62725,6.73 L47.62725,18 L45.51125,18 L45.51125,8.662 L39.76125,8.662 L39.76125,18 L37.64525,18 Z M60.329,6.73 L60.329,18 L58.213,18 L58.213,12.158 L58.305,9.95 L58.213,9.95 L52.463,18 L50.347,18 L50.347,6.73 L52.463,6.73 L52.463,12.572 L52.371,14.78 L52.463,14.78 L58.213,6.73 L60.329,6.73 Z M68.08575,18.368 C66.3990749,18.368 65.0114221,17.796839 63.92275,16.6545 C62.8340779,15.512161 62.28975,14.0823419 62.28975,12.365 C62.28975,10.6476581 62.8340779,9.21783905 63.92275,8.0755 C65.0114221,6.93316096 66.3990749,6.362 68.08575,6.362 C69.3430896,6.362 70.3857459,6.6686636 71.21375,7.282 C72.0417541,7.8953364 72.6474147,8.66966199 73.03075,9.605 L71.09875,10.41 C70.5160804,8.99932628 69.4657576,8.294 67.94775,8.294 C67.012412,8.294 66.1882536,8.6773295 65.47525,9.444 C64.7622464,10.2106705 64.40575,11.1843274 64.40575,12.365 C64.40575,13.5456726 64.7622464,14.5193295 65.47525,15.286 C66.1882536,16.0526705 67.012412,16.436 67.94775,16.436 C69.5270912,16.436 70.615747,15.7306737 71.21375,14.32 L73.09975,15.125 C72.7164147,16.0450046 72.0992543,16.8154969 71.24825,17.4365 C70.3972457,18.0575031 69.3430896,18.368 68.08575,18.368 Z M78.5335,18.368 C77.337494,18.368 76.337004,18.0230035 75.532,17.333 C74.726996,16.6429965 74.3245,15.7306723 74.3245,14.596 C74.3245,13.3693272 74.7998286,12.4071702 75.7505,11.7095 C76.7011714,11.0118298 77.8741597,10.663 79.2695,10.663 C80.5115062,10.663 81.5311627,10.8929977 82.3285,11.353 L82.3285,11.031 C82.3285,10.2029959 82.0448362,9.53983583 81.4775,9.0415 C80.9101638,8.54316418 80.2125041,8.294 79.3845,8.294 C78.7711636,8.294 78.2153358,8.43966521 77.717,8.731 C77.2186642,9.02233479 76.8775009,9.42099747 76.6935,9.927 L74.7615,9.099 C75.022168,8.42432996 75.5358295,7.79950287 76.3025,7.2245 C77.0691705,6.64949712 78.0811604,6.362 79.3385,6.362 C80.7798405,6.362 81.9758286,6.78366245 82.9265,7.627 C83.8771714,8.47033755 84.3525,9.658659 84.3525,11.192 L84.3525,18 L82.3285,18 L82.3285,16.436 L82.2365,16.436 C81.3931624,17.7240064 80.1588415,18.368 78.5335,18.368 Z M78.8785,16.436 C79.7525044,16.436 80.5459964,16.1101699 81.259,15.4585 C81.9720036,14.8068301 82.3285,14.0363378 82.3285,13.147 C81.730497,12.6563309 80.833506,12.411 79.6375,12.411 C78.6101615,12.411 77.8358359,12.6333311 77.3145,13.078 C76.7931641,13.5226689 76.5325,14.043997 76.5325,14.642 C76.5325,15.1940028 76.7701643,15.6309984 77.2455,15.953 C77.7208357,16.2750016 78.2651636,16.436 78.8785,16.436 Z M86.15225,8.662 L86.15225,6.73 L94.89225,6.73 L94.89225,8.662 L91.58025,8.662 L91.58025,18 L89.46425,18 L89.46425,8.662 L86.15225,8.662 Z M106.858,6.73 L106.858,18 L104.742,18 L104.742,12.158 L104.834,9.95 L104.742,9.95 L98.992,18 L96.876,18 L96.876,6.73 L98.992,6.73 L98.992,12.572 L98.9,14.78 L98.992,14.78 L104.742,6.73 L106.858,6.73 Z M114.61475,18.368 C112.928075,18.368 111.540422,17.796839 110.45175,16.6545 C109.363078,15.512161 108.81875,14.0823419 108.81875,12.365 C108.81875,10.6476581 109.363078,9.21783905 110.45175,8.0755 C111.540422,6.93316096 112.928075,6.362 114.61475,6.362 C115.87209,6.362 116.914746,6.6686636 117.74275,7.282 C118.570754,7.8953364 119.176415,8.66966199 119.55975,9.605 L117.62775,10.41 C117.04508,8.99932628 115.994758,8.294 114.47675,8.294 C113.541412,8.294 112.717254,8.6773295 112.00425,9.444 C111.291246,10.2106705 110.93475,11.1843274 110.93475,12.365 C110.93475,13.5456726 111.291246,14.5193295 112.00425,15.286 C112.717254,16.0526705 113.541412,16.436 114.47675,16.436 C116.056091,16.436 117.144747,15.7306737 117.74275,14.32 L119.62875,15.125 C119.245415,16.0450046 118.628254,16.8154969 117.77725,17.4365 C116.926246,18.0575031 115.87209,18.368 114.61475,18.368 Z M122.7395,18 L120.3245,18 L120.3245,17.885 L123.4755,13.607 L123.4295,13.561 C122.647496,13.3769991 122.003503,12.9668365 121.4975,12.3305 C120.991497,11.6941635 120.7385,10.9850039 120.7385,10.203 C120.7385,9.22166176 121.106496,8.39750333 121.8425,7.7305 C122.578504,7.06349667 123.444828,6.73 124.4415,6.73 L130.2145,6.73 L130.2145,18 L128.0985,18 L128.0985,13.699 L125.7525,13.699 L122.7395,18 Z M124.6025,11.882 L128.0985,11.882 L128.0985,8.662 L124.5335,8.662 C124.058164,8.662 123.667168,8.83449828 123.3605,9.1795 C123.053832,9.52450173 122.9005,9.88866475 122.9005,10.272 C122.9005,10.7166689 123.072998,11.0961651 123.418,11.4105 C123.763002,11.7248349 124.157831,11.882 124.6025,11.882 Z M142.301,12.25 C143.512339,12.25 144.393997,11.9740028 144.946,11.422 L144.946,6.73 L147.062,6.73 L147.062,18 L144.946,18 L144.946,14.182 L144.992,13.262 L144.946,13.262 C144.117996,13.8753364 143.098339,14.182 141.887,14.182 C140.614327,14.182 139.579337,13.7871706 138.782,12.9975 C137.984663,12.2078294 137.586,11.2073394 137.586,9.996 L137.586,6.73 L139.748,6.73 L139.748,9.996 C139.748,10.6860034 139.977998,11.2341646 140.438,11.6405 C140.898002,12.0468354 141.518996,12.25 142.301,12.25 Z M154.77275,18.368 C153.070741,18.368 151.686922,17.8006723 150.62125,16.666 C149.555578,15.5313277 149.02275,14.0976753 149.02275,12.365 C149.02275,10.7243251 149.540245,9.31367257 150.57525,8.133 C151.610255,6.95232743 152.932742,6.362 154.54275,6.362 C156.214092,6.362 157.551912,6.90632789 158.55625,7.995 C159.560588,9.08367211 160.06275,10.5403242 160.06275,12.365 L160.03975,12.756 L151.13875,12.756 C151.200084,13.8906723 151.57958,14.7876634 152.27725,15.447 C152.97492,16.1063366 153.791412,16.436 154.72675,16.436 C156.244758,16.436 157.272081,15.7920064 157.80875,14.504 L159.69475,15.286 C159.326748,16.1600044 158.721088,16.8921637 157.87775,17.4825 C157.034412,18.0728363 155.999423,18.368 154.77275,18.368 Z M157.80875,11.008 C157.76275,10.3639968 157.467586,9.75066958 156.92325,9.168 C156.378914,8.58533042 155.570089,8.294 154.49675,8.294 C153.714746,8.294 153.036253,8.53933088 152.46125,9.03 C151.886247,9.52066912 151.491418,10.1799959 151.27675,11.008 L157.80875,11.008 Z M168.0035,18.368 C167.144829,18.368 166.374337,18.1840018 165.692,17.816 C165.009663,17.4479982 164.499835,16.9880028 164.1625,16.436 L164.0705,16.436 L164.1625,18 L164.1625,22.968 L162.0465,22.968 L162.0465,6.73 L164.0705,6.73 L164.0705,8.294 L164.1625,8.294 C164.499835,7.74199724 165.009663,7.28200184 165.692,6.914 C166.374337,6.54599816 167.144829,6.362 168.0035,6.362 C169.460174,6.362 170.717495,6.93699425 171.7755,8.087 C172.833505,9.23700575 173.3625,10.6629915 173.3625,12.365 C173.3625,14.0670085 172.833505,15.4929943 171.7755,16.643 C170.717495,17.7930057 169.460174,18.368 168.0035,18.368 Z M167.6585,16.436 C168.639838,16.436 169.483163,16.0641704 170.1885,15.3205 C170.893837,14.5768296 171.2465,13.5916728 171.2465,12.365 C171.2465,11.1383272 170.893837,10.1531704 170.1885,9.4095 C169.483163,8.66582962 168.639838,8.294 167.6585,8.294 C166.661828,8.294 165.81467,8.66199632 165.117,9.398 C164.41933,10.1340037 164.0705,11.1229938 164.0705,12.365 C164.0705,13.6070062 164.41933,14.5959963 165.117,15.332 C165.81467,16.0680037 166.661828,16.436 167.6585,16.436 Z M180.54425,18.368 C178.842241,18.368 177.458422,17.8006723 176.39275,16.666 C175.327078,15.5313277 174.79425,14.0976753 174.79425,12.365 C174.79425,10.7243251 175.311745,9.31367257 176.34675,8.133 C177.381755,6.95232743 178.704242,6.362 180.31425,6.362 C181.985592,6.362 183.323412,6.90632789 184.32775,7.995 C185.332088,9.08367211 185.83425,10.5403242 185.83425,12.365 L185.81125,12.756 L176.91025,12.756 C176.971584,13.8906723 177.35108,14.7876634 178.04875,15.447 C178.74642,16.1063366 179.562912,16.436 180.49825,16.436 C182.016258,16.436 183.043581,15.7920064 183.58025,14.504 L185.46625,15.286 C185.098248,16.1600044 184.492588,16.8921637 183.64925,17.4825 C182.805912,18.0728363 181.770923,18.368 180.54425,18.368 Z M183.58025,11.008 C183.53425,10.3639968 183.239086,9.75066958 182.69475,9.168 C182.150414,8.58533042 181.341589,8.294 180.26825,8.294 C179.486246,8.294 178.807753,8.53933088 178.23275,9.03 C177.657747,9.52066912 177.262918,10.1799959 177.04825,11.008 L183.58025,11.008 Z M195.109,12.089 L195.086,12.089 C196.404673,12.6410028 197.064,13.4843277 197.064,14.619 C197.064,15.6616719 196.611671,16.4858303 195.707,17.0915 C194.802329,17.6971697 193.621674,18 192.165,18 C191.290996,18 190.417004,17.831335 189.543,17.494 C188.668996,17.156665 187.925336,16.6813364 187.312,16.068 L188.715,14.711 C189.665671,15.6156712 190.81566,16.068 192.165,16.068 C193.008338,16.068 193.675331,15.9223348 194.166,15.631 C194.656669,15.3396652 194.902,14.9640023 194.902,14.504 C194.902,14.0593311 194.733335,13.6875015 194.396,13.3885 C194.058665,13.0894985 193.583336,12.94 192.97,12.94 L190.578,12.94 L190.578,11.238 L192.901,11.238 C193.361002,11.238 193.748165,11.1038347 194.0625,10.8355 C194.376835,10.5671653 194.534,10.2106689 194.534,9.766 C194.534,9.32133111 194.330835,8.96483467 193.9245,8.6965 C193.518165,8.42816533 192.962337,8.294 192.257,8.294 C191.014994,8.294 189.957004,8.70032927 189.083,9.513 L187.726,8.202 C188.952673,6.9753272 190.462991,6.362 192.257,6.362 C193.437673,6.362 194.464996,6.6686636 195.339,7.282 C196.213004,7.8953364 196.65,8.68499517 196.65,9.651 C196.65,10.8163392 196.136338,11.6289977 195.109,12.089 Z" id="Підписатися-через" fill="#FFFFFF"></path>
        <g id="Group" transform="translate(205.000000, 0.000000)" fill="#FFFFFF" fill-rule="nonzero">
            <path d="M9.36714443,19 C4.27673649,19 0,14.7346939 0,9.5 C0,4.26530612 4.27673649,0 9.36714443,0 C12.185226,0 14.1896362,1.13265306 15.6979052,2.62244898 L13.92172,4.44897959 C12.8401323,3.40816327 11.3715546,2.59183673 9.36714443,2.59183673 C5.646086,2.59183673 2.73869901,5.67346939 2.73869901,9.5 C2.73869901,13.3265306 5.646086,16.4081633 9.36714443,16.4081633 C11.7783903,16.4081633 13.1477398,15.4081633 14.030871,14.5102041 C14.755237,13.7653061 15.2216097,12.7040816 15.4002205,11.244898 L9.36714443,11.244898 L9.36714443,8.64285714 L17.8610805,8.64285714 C17.9503859,9.10204082 18,9.66326531 18,10.2653061 C18,12.2142857 17.4840132,14.622449 15.8169791,16.3367347 C14.1896362,18.0714286 12.1256891,19 9.36714443,19 Z" id="Shape"></path>
            <path d="M32,13 C32,16.4557596 29.3096447,19 26,19 C22.6903553,19 20,16.4557596 20,13 C20,9.52420701 22.6903553,7 26,7 C29.3096447,7 32,9.52420701 32,13 Z M29.3705584,13 C29.3705584,10.836394 27.8071066,9.3639399 26,9.3639399 C24.1928934,9.3639399 22.6294416,10.8464107 22.6294416,13 C22.6294416,15.1335559 24.1928934,16.6360601 26,16.6360601 C27.8071066,16.6360601 29.3705584,15.1435726 29.3705584,13 Z" id="Shape"></path>
            <path d="M45,13 C45,16.4557596 42.3096447,19 39,19 C35.7005076,19 33,16.4557596 33,13 C33,9.52420701 35.6903553,7 39,7 C42.3096447,7 45,9.52420701 45,13 Z M42.3807107,13 C42.3807107,10.836394 40.8172589,9.3639399 39.0101523,9.3639399 C37.2030457,9.3639399 35.6395939,10.8464107 35.6395939,13 C35.6395939,15.1335559 37.2030457,16.6360601 39.0101523,16.6360601 C40.8172589,16.6460768 42.3807107,15.1435726 42.3807107,13 Z" id="Shape"></path>
            <path d="M57,7.3621186 L57,17.8929188 C57,22.228555 54.5013055,24 51.5430809,24 C48.7571802,24 47.0913838,22.0915371 46.45953,20.5354059 L48.6518712,19.6056419 C49.0443864,20.5647668 50.0017406,21.6902706 51.5430809,21.6902706 C53.4386423,21.6902706 54.6066144,20.4864709 54.6066144,18.2452504 L54.6066144,17.4035694 L54.5204526,17.4035694 C53.9556136,18.1180196 52.8642298,18.7345999 51.4952132,18.7345999 C48.6231506,18.7345999 46,16.1801957 46,12.8917674 C46,9.58376511 48.6327241,7 51.4952132,7 C52.8642298,7 53.9556136,7.6263673 54.5204526,8.31145653 L54.6066144,8.31145653 L54.6066144,7.3621186 L57,7.3621186 Z M54.7789382,12.9015544 C54.7789382,10.8364997 53.4290688,9.31951641 51.7154047,9.31951641 C49.97302,9.31951641 48.5178416,10.8267127 48.5178416,12.9015544 C48.5178416,14.9470351 49.97302,16.4346575 51.7154047,16.4346575 C53.4290688,16.4346575 54.7789382,14.9470351 54.7789382,12.9015544 Z" id="Shape"></path>
            <polygon id="Shape" points="63 1 63 19 60 19 60 1"></polygon>
            <path d="M72.8441203,14.9732888 L74.8896992,16.3355593 C74.2278943,17.3171953 72.633546,19 69.8760255,19 C66.4567001,19 64,16.3656093 64,13 C64,9.43405676 66.4867821,7 69.5852325,7 C72.7037375,7 74.2278943,9.47412354 74.7292616,10.8163606 L75,11.4974958 L66.9680948,14.8230384 C67.579763,16.0250417 68.5423883,16.6460768 69.8860529,16.6460768 C71.2297174,16.6460768 72.1622607,15.9749583 72.8441203,14.9732888 Z M66.5369189,12.8096828 L71.911577,10.5859766 C71.6107566,9.83472454 70.72835,9.31385643 69.6754786,9.31385643 C68.331814,9.31385643 66.4667274,10.4958264 66.5369189,12.8096828 Z" id="Shape"></path>
        </g>
    </g>
</svg>

<svg width="280" height="24" viewBox="0 0 280 24" xmlns="http://www.w3.org/2000/svg"><title>SwG-UK-Black</title><desc>Created with Sketch.</desc><g fill="none"><path d="M1.656 18v-16.468h11.914v16.468h-2.116v-14.444h-7.682v14.444h-2.116zm17.302-14.099c-.291.291-.644.437-1.058.437-.414 0-.767-.146-1.058-.437-.291-.291-.437-.644-.437-1.058 0-.414.146-.767.437-1.058.291-.291.644-.437 1.058-.437.414 0 .767.146 1.058.437.291.291.437.644.437 1.058 0 .414-.146.767-.437 1.058zm0 14.099h-2.116v-11.27h2.116v11.27zm4.284 3.496h-2.024v-5.428h1.357c.337-.291.617-.855.84-1.691.222-.836.333-1.813.333-2.932v-4.715h9.982v9.338h1.84v5.428h-2.024v-3.496h-10.304v3.496zm2.622-12.834v2.944c0 1.794-.307 3.281-.92 4.462h6.67v-7.406h-5.75zm11.782 9.338v-11.27h9.982v11.27h-2.116v-9.338h-5.75v9.338h-2.116zm22.684-11.27v11.27h-2.116v-5.842l.092-2.208h-.092l-5.75 8.05h-2.116v-11.27h2.116v5.842l-.092 2.208h.092l5.75-8.05h2.116zm7.757 11.638c-1.687 0-3.074-.571-4.163-1.713-1.089-1.142-1.633-2.572-1.633-4.289 0-1.717.544-3.147 1.633-4.29 1.089-1.142 2.476-1.713 4.163-1.713 1.257 0 2.3.307 3.128.92.828.613 1.434 1.388 1.817 2.323l-1.932.805c-.583-1.411-1.633-2.116-3.151-2.116-.935 0-1.759.383-2.472 1.15-.713.767-1.07 1.74-1.07 2.921 0 1.181.356 2.154 1.07 2.921.713.767 1.537 1.15 2.472 1.15 1.579 0 2.668-.705 3.266-2.116l1.886.805c-.383.92-1 1.69-1.852 2.311-.851.621-1.905.931-3.162.931zm10.448 0c-1.196 0-2.196-.345-3.002-1.035-.805-.69-1.207-1.602-1.207-2.737 0-1.227.475-2.189 1.426-2.886.951-.698 2.124-1.046 3.519-1.046 1.242 0 2.262.23 3.059.69v-.322c0-.828-.284-1.491-.851-1.99-.567-.498-1.265-.747-2.093-.747-.613 0-1.169.146-1.668.437-.498.291-.839.69-1.023 1.196l-1.932-.828c.261-.675.774-1.299 1.541-1.875.767-.575 1.779-.862 3.036-.862 1.441 0 2.637.422 3.588 1.265.951.843 1.426 2.032 1.426 3.565v6.808h-2.024v-1.564h-.092c-.843 1.288-2.078 1.932-3.703 1.932zm.345-1.932c.874 0 1.667-.326 2.38-.977.713-.652 1.07-1.422 1.07-2.312-.598-.491-1.495-.736-2.691-.736-1.027 0-1.802.222-2.323.667-.521.445-.782.966-.782 1.564 0 .552.238.989.713 1.311.475.322 1.02.483 1.633.483zm7.274-7.774v-1.932h8.74v1.932h-3.312v9.338h-2.116v-9.338h-3.312zm20.706-1.932v11.27h-2.116v-5.842l.092-2.208h-.092l-5.75 8.05h-2.116v-11.27h2.116v5.842l-.092 2.208h.092l5.75-8.05h2.116zm7.757 11.638c-1.687 0-3.074-.571-4.163-1.713-1.089-1.142-1.633-2.572-1.633-4.289 0-1.717.544-3.147 1.633-4.29 1.089-1.142 2.476-1.713 4.163-1.713 1.257 0 2.3.307 3.128.92.828.613 1.434 1.388 1.817 2.323l-1.932.805c-.583-1.411-1.633-2.116-3.151-2.116-.935 0-1.759.383-2.472 1.15-.713.767-1.07 1.74-1.07 2.921 0 1.181.356 2.154 1.07 2.921.713.767 1.537 1.15 2.472 1.15 1.579 0 2.668-.705 3.266-2.116l1.886.805c-.383.92-1 1.69-1.852 2.311-.851.621-1.905.931-3.162.931zm8.125-.368h-2.415v-.115l3.151-4.278-.046-.046c-.782-.184-1.426-.594-1.932-1.23s-.759-1.345-.759-2.128c0-.981.368-1.805 1.104-2.472.736-.667 1.602-1 2.599-1h5.773v11.27h-2.116v-4.301h-2.346l-3.013 4.301zm1.863-6.118h3.496v-3.22h-3.565c-.475 0-.866.172-1.173.518-.307.345-.46.709-.46 1.092 0 .445.172.824.518 1.139.345.314.74.471 1.184.471zm17.698.368c1.211 0 2.093-.276 2.645-.828v-4.692h2.116v11.27h-2.116v-3.818l.046-.92h-.046c-.828.613-1.848.92-3.059.92-1.273 0-2.308-.395-3.105-1.184-.797-.79-1.196-1.79-1.196-3.002v-3.266h2.162v3.266c0 .69.23 1.238.69 1.644.46.406 1.081.61 1.863.61zm12.472 6.118c-1.702 0-3.086-.567-4.151-1.702-1.066-1.135-1.599-2.568-1.599-4.301 0-1.641.517-3.051 1.553-4.232 1.035-1.181 2.357-1.771 3.968-1.771 1.671 0 3.009.544 4.013 1.633s1.506 2.545 1.506 4.37l-.023.391h-8.901c.061 1.135.441 2.032 1.139 2.691.698.659 1.514.989 2.45.989 1.518 0 2.545-.644 3.082-1.932l1.886.782c-.368.874-.974 1.606-1.817 2.197-.843.59-1.878.885-3.105.885zm3.036-7.36c-.046-.644-.341-1.257-.886-1.84-.544-.583-1.353-.874-2.427-.874-.782 0-1.46.245-2.035.736-.575.491-.97 1.15-1.185 1.978h6.532zm10.195 7.36c-.859 0-1.629-.184-2.311-.552-.682-.368-1.192-.828-1.53-1.38h-.092l.092 1.564v4.968h-2.116v-16.238h2.024v1.564h.092c.337-.552.847-1.012 1.53-1.38.682-.368 1.453-.552 2.311-.552 1.457 0 2.714.575 3.772 1.725 1.058 1.15 1.587 2.576 1.587 4.278 0 1.702-.529 3.128-1.587 4.278-1.058 1.15-2.315 1.725-3.772 1.725zm-.345-1.932c.981 0 1.825-.372 2.53-1.116.705-.744 1.058-1.729 1.058-2.955 0-1.227-.353-2.212-1.058-2.956-.705-.744-1.549-1.115-2.53-1.115-.997 0-1.844.368-2.542 1.104-.698.736-1.046 1.725-1.046 2.967s.349 2.231 1.046 2.967c.698.736 1.545 1.104 2.542 1.104zm12.886 1.932c-1.702 0-3.086-.567-4.151-1.702-1.066-1.135-1.599-2.568-1.599-4.301 0-1.641.517-3.051 1.552-4.232 1.035-1.181 2.357-1.771 3.968-1.771 1.671 0 3.009.544 4.014 1.633 1.004 1.089 1.506 2.545 1.506 4.37l-.023.391h-8.901c.061 1.135.441 2.032 1.139 2.691.698.659 1.514.989 2.45.989 1.518 0 2.545-.644 3.082-1.932l1.886.782c-.368.874-.974 1.606-1.817 2.197-.843.59-1.878.885-3.105.885zm3.036-7.36c-.046-.644-.341-1.257-.886-1.84-.544-.583-1.353-.874-2.427-.874-.782 0-1.46.245-2.035.736-.575.491-.97 1.15-1.185 1.978h6.532zm11.529 1.081h-.023c1.319.552 1.978 1.395 1.978 2.53 0 1.043-.452 1.867-1.357 2.473-.905.606-2.085.909-3.542.909-.874 0-1.748-.169-2.622-.506-.874-.337-1.618-.813-2.231-1.426l1.403-1.357c.951.905 2.101 1.357 3.45 1.357.843 0 1.51-.146 2.001-.437.491-.291.736-.667.736-1.127 0-.445-.169-.816-.506-1.115-.337-.299-.813-.449-1.426-.449h-2.392v-1.702h2.323c.46 0 .847-.134 1.161-.402.314-.268.471-.625.471-1.069 0-.445-.203-.801-.609-1.069-.406-.268-.962-.402-1.667-.402-1.242 0-2.3.406-3.174 1.219l-1.357-1.311c1.227-1.227 2.737-1.84 4.531-1.84 1.181 0 2.208.307 3.082.92.874.613 1.311 1.403 1.311 2.369 0 1.165-.514 1.978-1.541 2.438z" fill="#fff"/><g fill-rule="nonzero"><path d="M214.367 19c-5.09 0-9.367-4.265-9.367-9.5s4.277-9.5 9.367-9.5c2.818 0 4.822 1.133 6.331 2.622l-1.776 1.827c-1.082-1.041-2.55-1.857-4.555-1.857-3.721 0-6.628 3.082-6.628 6.908 0 3.827 2.907 6.908 6.628 6.908 2.411 0 3.781-1 4.664-1.898.724-.745 1.191-1.806 1.369-3.265h-6.033v-2.602h8.494c.089.459.139 1.02.139 1.622 0 1.949-.516 4.357-2.183 6.071-1.627 1.735-3.691 2.663-6.45 2.663z" id="Shape" fill="#4285F4"/><path d="M237 13c0 3.456-2.69 6-6 6s-6-2.544-6-6c0-3.476 2.69-6 6-6s6 2.524 6 6zm-2.629 0c0-2.164-1.563-3.636-3.371-3.636-1.807 0-3.371 1.482-3.371 3.636 0 2.134 1.563 3.636 3.371 3.636 1.807 0 3.371-1.492 3.371-3.636z" id="Shape" fill="#E94235"/><path d="M250 13c0 3.456-2.69 6-6 6-3.299 0-6-2.544-6-6 0-3.476 2.69-6 6-6s6 2.524 6 6zm-2.619 0c0-2.164-1.563-3.636-3.371-3.636-1.807 0-3.371 1.482-3.371 3.636 0 2.134 1.563 3.636 3.371 3.636 1.807.01 3.371-1.492 3.371-3.636z" id="Shape" fill="#FABB05"/><path d="M262 7.362v10.531c0 4.336-2.499 6.107-5.457 6.107-2.786 0-4.452-1.908-5.084-3.465l2.192-.93c.393.959 1.35 2.085 2.891 2.085 1.896 0 3.064-1.204 3.064-3.445v-.842h-.086c-.565.714-1.656 1.331-3.025 1.331-2.872 0-5.495-2.554-5.495-5.843 0-3.308 2.633-5.892 5.495-5.892 1.369 0 2.46.626 3.025 1.311h.086v-.949h2.393zm-2.221 5.539c0-2.065-1.35-3.582-3.064-3.582-1.742 0-3.198 1.507-3.198 3.582 0 2.045 1.455 3.533 3.198 3.533 1.714 0 3.064-1.488 3.064-3.533z" id="Shape" fill="#4285F4"/><path id="Shape" fill="#34A853" d="M268 1v18h-3v-18z"/><path d="M277.844 14.973l2.046 1.362c-.662.982-2.256 2.664-5.014 2.664-3.419 0-5.876-2.634-5.876-6 0-3.566 2.487-6 5.585-6 3.119 0 4.643 2.474 5.144 3.816l.271.681-8.032 3.326c.612 1.202 1.574 1.823 2.918 1.823s2.276-.671 2.958-1.673zm-6.307-2.164l5.375-2.224c-.301-.751-1.183-1.272-2.236-1.272-1.344 0-3.209 1.182-3.139 3.496z" fill="#E94235"/></g></g></svg>
